resources/caps.svg

<?xml version="1.0" encoding="UTF-8" standalone="no"?>
<!-- Created with Inkscape (http://www.inkscape.org/) -->

<svg
   xmlns:osb="http://www.openswatchbook.org/uri/2009/osb"
   xmlns:dc="http://purl.org/dc/elements/1.1/"
   xmlns:cc="http://creativecommons.org/ns#"
   xmlns:rdf="http://www.w3.org/1999/02/22-rdf-syntax-ns#"
   xmlns:svg="http://www.w3.org/2000/svg"
   xmlns="http://www.w3.org/2000/svg"
   xmlns:sodipodi="http://sodipodi.sourceforge.net/DTD/sodipodi-0.dtd"
   xmlns:inkscape="http://www.inkscape.org/namespaces/inkscape"
   width="201.19333"
   height="208.3998"
   id="svg2"
   version="1.1"
   inkscape:version="0.48.4 r9939"
   sodipodi:docname="caps.svg">
  <defs
     id="defs4">
    <linearGradient
       id="linearGradient5353"
       osb:paint="solid">
      <stop
         style="stop-color:#f9f9f9;stop-opacity:1;"
         offset="0"
         id="stop5355" />
    </linearGradient>
    <inkscape:perspective
       sodipodi:type="inkscape:persp3d"
       inkscape:vp_x="102.85714 : 566.18109 : 1"
       inkscape:vp_y="0 : 1000 : 0"
       inkscape:vp_z="566.95163 : 516.18109 : 1"
       inkscape:persp3d-origin="372.04724 : 350.78739 : 1"
       id="perspective2985" />
  </defs>
  <sodipodi:namedview
     id="base"
     pagecolor="#ffffff"
     bordercolor="#666666"
     borderopacity="1.0"
     inkscape:pageopacity="0.0"
     inkscape:pageshadow="2"
     inkscape:zoom="2.8"
     inkscape:cx="32.90847"
     inkscape:cy="46.223347"
     inkscape:document-units="px"
     inkscape:current-layer="layer1"
     showgrid="false"
     inkscape:window-width="1920"
     inkscape:window-height="1148"
     inkscape:window-x="1600"
     inkscape:window-y="27"
     inkscape:window-maximized="1"
     fit-margin-top="0"
     fit-margin-left="0"
     fit-margin-right="0"
     fit-margin-bottom="0" />
  <metadata
     id="metadata7">
    <rdf:RDF>
      <cc:Work
         rdf:about="">
        <dc:format>image/svg+xml</dc:format>
        <dc:type
           rdf:resource="http://purl.org/dc/dcmitype/StillImage" />
        <dc:title />
      </cc:Work>
    </rdf:RDF>
  </metadata>
  <g
     inkscape:label="Layer 1"
     inkscape:groupmode="layer"
     id="layer1"
     transform="translate(-280.89366,-290.1627)">
    <path
       transform="matrix(0.08462419,0,0,0.04880664,366.90531,343.66448)"
       style="fill:#ffffff;fill-opacity:1;fill-rule:evenodd;stroke:#f9f9f9;stroke-width:15.56013203;stroke-linecap:butt;stroke-linejoin:round;stroke-miterlimit:4;stroke-opacity:1;stroke-dasharray:none"
       inkscape:transform-center-x="-0.59772346"
       inkscape:transform-center-y="0.4111698"
       d="M 1353.3154,957.9087 -1008.5983,956.18145 173.85438,-1088.4322 z"
       id="path3043"
       inkscape:connector-curvature="0" />
    <path
       style="fill:#ffffff;stroke:#f9f9f9;stroke-width:1;stroke-linejoin:round;stroke-miterlimit:4;stroke-opacity:1;stroke-dasharray:none"
       d="m 352.90625,400.9375 0,47.125 -46.40625,0 0,50 150,0 0,-50 -46.4375,0 0,-47.125 -57.15625,0 z"
       id="rect3123"
       inkscape:connector-curvature="0" />
  </g>
</svg>

<?xml version="1.0" encoding="UTF-8" standalone="no"?>
<!-- Created with Inkscape (http://www.inkscape.org/) -->

<svg
   xmlns:osb="http://www.openswatchbook.org/uri/2009/osb"
   xmlns:dc="http://purl.org/dc/elements/1.1/"
   xmlns:cc="http://creativecommons.org/ns#"
   xmlns:rdf="http://www.w3.org/1999/02/22-rdf-syntax-ns#"
   xmlns:svg="http://www.w3.org/2000/svg"
   xmlns="http://www.w3.org/2000/svg"
   xmlns:sodipodi="http://sodipodi.sourceforge.net/DTD/sodipodi-0.dtd"
   xmlns:inkscape="http://www.inkscape.org/namespaces/inkscape"
   width="744.09448819"
   height="1052.3622047"
   id="svg2"
   version="1.1"
   inkscape:version="0.48.4 r9939"
   sodipodi:docname="shift.svg">
  <defs
     id="defs4">
    <linearGradient
       id="linearGradient5353"
       osb:paint="solid">
      <stop
         style="stop-color:#f9f9f9;stop-opacity:1;"
         offset="0"
         id="stop5355" />
    </linearGradient>
    <inkscape:perspective
       sodipodi:type="inkscape:persp3d"
       inkscape:vp_x="102.85714 : 566.18109 : 1"
       inkscape:vp_y="0 : 1000 : 0"
       inkscape:vp_z="566.95163 : 516.18109 : 1"
       inkscape:persp3d-origin="372.04724 : 350.78739 : 1"
       id="perspective2985" />
  </defs>
  <sodipodi:namedview
     id="base"
     pagecolor="#ffffff"
     bordercolor="#666666"
     borderopacity="1.0"
     inkscape:pageopacity="0.0"
     inkscape:pageshadow="2"
     inkscape:zoom="2.8"
     inkscape:cx="313.08784"
     inkscape:cy="600.02303"
     inkscape:document-units="px"
     inkscape:current-layer="layer1"
     showgrid="false"
     inkscape:window-width="1920"
     inkscape:window-height="1148"
     inkscape:window-x="1600"
     inkscape:window-y="27"
     inkscape:window-maximized="1" />
  <metadata
     id="metadata7">
    <rdf:RDF>
      <cc:Work
         rdf:about="">
        <dc:format>image/svg+xml</dc:format>
        <dc:type
           rdf:resource="http://purl.org/dc/dcmitype/StillImage" />
        <dc:title></dc:title>
      </cc:Work>
    </rdf:RDF>
  </metadata>
  <g
     inkscape:label="Layer 1"
     inkscape:groupmode="layer"
     id="layer1">
    <path
       transform="matrix(0.08462419,0,0,0.04880664,366.90531,343.66448)"
       style="fill:#ffffff;fill-rule:evenodd;stroke:#f9f9f9;stroke-width:15.56013219999999997;stroke-linecap:butt;stroke-linejoin:round;stroke-miterlimit:4;stroke-opacity:1;stroke-dasharray:none;fill-opacity:1"
       inkscape:transform-center-x="-0.59772346"
       inkscape:transform-center-y="0.4111698"
       d="M 1353.3154,957.9087 -1008.5983,956.18145 173.85438,-1088.4322 z"
       id="path3043" />
    <path
       style="fill:#ffffff;stroke-width:1;stroke-miterlimit:4;stroke:#f9f9f9;stroke-opacity:1;stroke-dasharray:none;stroke-linejoin:round"
       d="M 352.90625 400.9375 L 352.90625 448.0625 L 306.5 448.0625 L 306.5 498.0625 L 456.5 498.0625 L 456.5 448.0625 L 410.0625 448.0625 L 410.0625 400.9375 L 352.90625 400.9375 z "
       id="rect3123" />
  </g>
</svg>
